src/assets/outline/CloudCross.svg

<svg width="24" height="24" viewBox="0 0 24 24"  xmlns="http://www.w3.org/2000/svg">
<path d="M16.6502 20.75C16.6402 20.75 16.6202 20.75 16.6102 20.75C16.2002 20.75 15.8602 20.41 15.8702 19.99C15.8702 19.58 16.2102 19.25 16.6202 19.25C16.6302 19.25 16.6502 19.25 16.6602 19.25C17.8002 19.25 18.8902 18.83 19.7302 18.05C21.2802 16.69 21.3902 14.75 20.9702 13.38C20.5502 12.01 19.3902 10.46 17.3602 10.2C17.0302 10.16 16.7702 9.91001 16.7102 9.58001C16.3102 7.19001 15.0202 5.54001 13.0802 4.94001C11.0602 4.32001 8.73022 4.93001 7.27022 6.46001C5.85022 7.95002 5.52022 10.02 6.34022 12.31C6.48022 12.7 6.28021 13.13 5.89021 13.27C5.50021 13.41 5.07021 13.21 4.93021 12.82C3.92021 10.01 4.38022 7.32001 6.19021 5.43001C8.03022 3.50001 10.9802 2.73001 13.5302 3.52001C15.8602 4.24001 17.5102 6.16001 18.1002 8.82001C20.1402 9.28001 21.7702 10.82 22.4202 12.95C23.1302 15.27 22.4802 17.65 20.7502 19.17C19.6102 20.19 18.1602 20.75 16.6502 20.75Z" />
<path d="M5.57008 20.75C5.55008 20.75 5.53008 20.75 5.52008 20.75C2.64008 20.55 1.33008 18.29 1.33008 16.28C1.33008 14.27 2.64008 12.02 5.52008 11.81C6.27008 11.8 6.99008 11.97 7.63008 12.29C8.00008 12.48 8.14008 12.93 7.96008 13.3C7.77008 13.67 7.32008 13.81 6.95008 13.63C6.53008 13.41 6.04008 13.32 5.59008 13.31C3.70008 13.45 2.84008 14.9 2.84008 16.28C2.84008 17.66 3.70008 19.11 5.64008 19.25C6.05008 19.28 6.36008 19.64 6.33008 20.05C6.29008 20.45 5.96008 20.75 5.57008 20.75Z" />
<path d="M15.8201 10.64C15.5501 10.64 15.2801 10.49 15.1501 10.22C14.9601 9.84997 15.1101 9.39997 15.4901 9.20997C16.1001 8.89997 16.7901 8.72997 17.4701 8.71997C17.8601 8.73997 18.2301 9.03997 18.2301 9.45997C18.2401 9.86997 17.9101 10.22 17.4901 10.22C17.0301 10.23 16.5701 10.34 16.1501 10.55C16.0501 10.62 15.9301 10.64 15.8201 10.64Z" />
<path d="M9.56 22.16C9.37 22.16 9.18 22.09 9.03 21.94C8.74 21.65 8.74 21.17 9.03 20.88L11.86 18.05C12.15 17.76 12.63 17.76 12.92 18.05C13.21 18.34 13.21 18.82 12.92 19.11L10.09 21.94C9.94 22.09 9.75 22.16 9.56 22.16Z" />
<path d="M12.39 22.16C12.2 22.16 12.01 22.09 11.86 21.94L9.03 19.11C8.74 18.82 8.74 18.34 9.03 18.05C9.32 17.76 9.8 17.76 10.09 18.05L12.92 20.88C13.21 21.17 13.21 21.65 12.92 21.94C12.77 22.09 12.58 22.16 12.39 22.16Z" />
</svg>

<?xml version="1.0" encoding="UTF-8"?>
<svg width="24" height="24" viewBox="0 0 24 24" xmlns="http://www.w3.org/2000/svg">
 <path d="m16.65 20.75h-0.04c-0.41 0-0.75-0.34-0.74-0.76 0-0.41 0.34-0.74 0.75-0.74h0.04c1.14 0 2.23-0.42 3.07-1.2 1.55-1.36 1.66-3.3 1.24-4.67s-1.58-2.92-3.61-3.18c-0.33-0.04-0.59-0.28999-0.65-0.61999-0.4-2.39-1.69-4.04-3.63-4.64-2.02-0.62-4.35-0.01-5.81 1.52-1.42 1.49-1.75 3.56-0.93 5.85 0.14 0.39-0.06001 0.82-0.45001 0.96s-0.82-0.06-0.96-0.45c-1.01-2.81-0.54999-5.5 1.26-7.39 1.84-1.93 4.79-2.7 7.34-1.91 2.33 0.72 3.98 2.64 4.57 5.3 2.04 0.46 3.67 2 4.32 4.13 0.71 2.32 0.06 4.7-1.67 6.22-1.14 1.02-2.59 1.58-4.1 1.58z"/>
 <path d="m5.5701 20.75h-0.05c-2.88-0.2-4.19-2.46-4.19-4.47s1.31-4.26 4.19-4.47c0.75-0.01 1.47 0.16 2.11 0.48 0.37 0.19 0.51 0.64 0.33 1.01-0.19 0.37-0.64 0.51-1.01 0.33-0.42-0.22-0.91-0.31-1.36-0.32-1.89 0.14-2.75 1.59-2.75 2.97s0.86 2.83 2.8 2.97c0.41 0.03 0.72 0.39 0.69 0.8-0.04 0.4-0.37 0.7-0.76 0.7z"/>
 <path d="m15.82 10.64c-0.27 0-0.54-0.15-0.67-0.42-0.19-0.37003-0.04-0.82003 0.34-1.01 0.61-0.31 1.3-0.48 1.98-0.49 0.39 0.02 0.76 0.32 0.76 0.74 0.01 0.41-0.32 0.76003-0.74 0.76003-0.46 0.01-0.92 0.12-1.34 0.33-0.1 0.07-0.22 0.09-0.33 0.09z"/>
 <path d="m9.56 22.16c-0.19 0-0.38-0.07-0.53-0.22-0.29-0.29-0.29-0.77 0-1.06l2.83-2.83c0.29-0.29 0.77-0.29 1.06 0s0.29 0.77 0 1.06l-2.83 2.83c-0.15 0.15-0.34 0.22-0.53 0.22z"/>
 <path d="m12.39 22.16c-0.19 0-0.38-0.07-0.53-0.22l-2.83-2.83c-0.29-0.29-0.29-0.77 0-1.06s0.77-0.29 1.06 0l2.83 2.83c0.29 0.29 0.29 0.77 0 1.06-0.15 0.15-0.34 0.22-0.53 0.22z"/>
</svg>
